!!!COM: the-divine-comedy
!!!OTL: my-lovely-horse
!!!RNB: hooktheoryid: nKexErZVo_B
**kern	**text
*clefG2	*
*k[]	*
*M4/4	*
=1	=1
8r	C
8g	.
8e	.
8c	.
4.G	Em
8r	.
=2	=2
16A	Am
8B	.
8.c	.
16e	.
[16fL	.
8.f]J	F
4r	.
16r	.
=3	=3
16g	C
16f	.
16e	.
8e	.
16e	.
16e	.
16f	.
16g	Em
8e	.
8e	.
16e	.
16e	.
16d	.
=4	=4
2e	Am
2r	F
=5	=5
16r	C
16g	.
16g	.
16g	.
16g	.
16g	.
16g	.
16g	.
16a	Em
8g	.
4g	.
16r	.
=6	=6
16r	Am
8e	.
8a	.
16g	.
16f	.
16e	.
16g	F
4f	.
8.r	.
=7	=7
16r	C
16g	.
16g	.
16g	.
8g	.
16g	.
16g	.
16a	Em
8g	.
4g	.
16r	.
=8	=8
16r	Am
16A	.
16A	.
16A	.
16A	D
16c	.
8e	.
16e	G
4d	.
8.r	.
*-	*-